images/people/people-03.svg

<?xml version="1.0" standalone="no"?><!DOCTYPE svg PUBLIC "-//W3C//DTD SVG 1.1//EN" "http://www.w3.org/Graphics/SVG/1.1/DTD/svg11.dtd"><svg width="120px" height="192px" version="1.1" xmlns="http://www.w3.org/2000/svg" xmlns:xlink="http://www.w3.org/1999/xlink" xml:space="preserve" style="fill-rule:evenodd;clip-rule:evenodd;stroke-linejoin:round;stroke-miterlimit:1.41421;"><g><g id="people-03" transform="matrix(1,0,0,1,-1444.89,-48)"><g transform="matrix(1,0,0,1,0,-12)"><path d="M1519.4,157.318l1.037,5.519l-1.428,7.046l-2.572,-1.444l0.736,-6.06l-0.17,1.837l-2.392,-0.594l2.018,-4.489l2.771,-1.815Z" style="fill:#e1c5b5;fill-rule:nonzero;"/></g><g transform="matrix(1,0,0,1,0,-12)"><path d="M1497.95,233.034l-0.853,6.195l6.039,-0.155l0.465,-6.658l-5.651,0.618Z" style="fill:#2a2b2a;fill-rule:nonzero;"/></g><g transform="matrix(1,0,0,1,0,-12)"><path d="M1502.31,242.499l1.219,9.001l4.761,0l0.697,-1.975l-1.24,-8.166l-5.437,1.14Z" style="fill:#2a2b2a;fill-rule:nonzero;"/></g><g transform="matrix(1,0,0,1,0,-12)"><path d="M1512.31,133.786l4.264,25.759l3.049,-1.145l-3.802,-29.065l-3.511,4.451Z" style="fill:#e1c5b5;fill-rule:nonzero;"/></g><g transform="matrix(1,0,0,1,0,-12)"><path d="M1503.45,183.551l-0.929,58.929l5.187,-1.083l4.569,-58.001" style="fill:#e1c5b5;fill-rule:nonzero;"/></g><g transform="matrix(1,0,0,1,0,-12)"><path d="M1503.6,166.982l-0.156,19.819l-0.736,45.847l-4.759,0.386l-2.324,-46.445l7.975,-19.607Z" style="fill:#ceab97;fill-rule:nonzero;"/></g><g transform="matrix(1,0,0,1,0,-12)"><path d="M1494.89,131.332l-1.214,27.267l-3.288,-0.238l1.564,-31.123l2.938,4.094Z" style="fill:#e1c5b5;fill-rule:nonzero;"/></g><g transform="matrix(1,0,0,1,0,-12)"><path d="M1490.38,158.266l-0.295,4.335l2.928,6.144l2.4,-1.423l-2.129,-5.506l0.358,1.809l2.021,-1.636l-2.037,-3.326l-3.246,-0.397Z" style="fill:#e1c5b5;fill-rule:nonzero;"/></g><g transform="matrix(1,0,0,1,0,-12)"><path d="M1491.99,127.186l5.702,-2.352l2.274,5.603l8.052,0.233l2.708,-4.994l5.19,3.563l-3.485,4.605l-0.433,14.394l7.208,57.162l-29.847,0.232l6.889,-56.894l-1.314,-17.371l-2.944,-4.181Z" style="fill:#fec;fill-rule:nonzero;"/></g><g transform="matrix(1,0,0,1,0,-12)"><path d="M1515.29,142.071l-2.957,-37.458l-8.467,-3.421l0.008,-0.121l-9.334,4.25l-1.332,36.418l4.248,3.249l14.233,0.5l3.601,-3.417Z" style="fill:#543e36;fill-rule:nonzero;"/></g></g></g></svg>

<?xml version="1.0" encoding="UTF-8" standalone="no"?>
<!DOCTYPE svg PUBLIC "-//W3C//DTD SVG 1.1//EN" "http://www.w3.org/Graphics/SVG/1.1/DTD/svg11.dtd">
<svg width="100%" height="100%" viewBox="0 0 140 220" version="1.1" xmlns="http://www.w3.org/2000/svg" xmlns:xlink="http://www.w3.org/1999/xlink" xml:space="preserve" xmlns:serif="http://www.serif.com/" style="fill-rule:evenodd;clip-rule:evenodd;stroke-linejoin:round;stroke-miterlimit:2;">
    <g id="people-03" transform="matrix(1.27,0,0,1.27,-1841.22,-84.8)">
        <g transform="matrix(1,0,0,1,0,-12)">
            <path d="M1519.4,157.318L1520.43,162.837L1519.01,169.883L1516.43,168.439L1517.17,162.379L1517,164.216L1514.61,163.622L1516.62,159.133L1519.4,157.318Z" style="fill:rgb(225,197,181);fill-rule:nonzero;"/>
        </g>
        <g transform="matrix(1,0,0,1,0,-12)">
            <path d="M1497.95,233.034L1497.1,239.229L1503.14,239.074L1503.6,232.416L1497.95,233.034Z" style="fill:rgb(42,43,42);fill-rule:nonzero;"/>
        </g>
        <g transform="matrix(1,0,0,1,0,-12)">
            <path d="M1502.31,242.499L1503.53,251.5L1508.29,251.5L1508.98,249.525L1507.74,241.359L1502.31,242.499Z" style="fill:rgb(42,43,42);fill-rule:nonzero;"/>
        </g>
        <g transform="matrix(1,0,0,1,0,-12)">
            <path d="M1512.31,133.786L1516.58,159.545L1519.62,158.4L1515.82,129.335L1512.31,133.786Z" style="fill:rgb(225,197,181);fill-rule:nonzero;"/>
        </g>
        <g transform="matrix(1,0,0,1,0,-12)">
            <path d="M1503.45,183.551L1502.52,242.48L1507.7,241.397L1512.27,183.396" style="fill:rgb(225,197,181);fill-rule:nonzero;"/>
        </g>
        <g transform="matrix(1,0,0,1,0,-12)">
            <path d="M1503.6,166.982L1503.45,186.801L1502.71,232.648L1497.95,233.034L1495.63,186.589L1503.6,166.982Z" style="fill:rgb(206,171,151);fill-rule:nonzero;"/>
        </g>
        <g transform="matrix(1,0,0,1,0,-12)">
            <path d="M1494.89,131.332L1493.68,158.599L1490.39,158.361L1491.95,127.238L1494.89,131.332Z" style="fill:rgb(225,197,181);fill-rule:nonzero;"/>
        </g>
        <g transform="matrix(1,0,0,1,0,-12)">
            <path d="M1490.38,158.266L1490.09,162.601L1493.01,168.745L1495.41,167.322L1493.29,161.816L1493.64,163.625L1495.66,161.989L1493.63,158.663L1490.38,158.266Z" style="fill:rgb(225,197,181);fill-rule:nonzero;"/>
        </g>
        <g transform="matrix(1,0,0,1,0,-12)">
            <path d="M1491.99,127.186L1497.69,124.834L1499.96,130.438L1508.02,130.671L1510.72,125.676L1515.91,129.239L1512.43,133.844L1512,148.238L1519.2,205.401L1489.36,205.633L1496.25,148.738L1494.93,131.368L1491.99,127.186Z" style="fill:rgb(255,238,204);fill-rule:nonzero;"/>
        </g>
        <g transform="matrix(1,0,0,1,0,-12)">
            <path d="M1515.29,142.071L1512.33,104.613L1503.87,101.192L1503.88,101.071L1494.54,105.321L1493.21,141.739L1497.46,144.988L1511.69,145.488L1515.29,142.071Z" style="fill:rgb(84,62,54);fill-rule:nonzero;"/>
        </g>
    </g>
</svg>
